X: 1
T: Parody of Drumnagarry
O: Skye Collection
R: strathspey
B: RSCDS __-1
Z: 1997 by John Chambers <jc:trillian.mit.edu>
M: C
L: 1/8
K: G
|: D \
| "G"G>D B,<G, "Em"B,<D G>B | "Am"c>B A<G E<A "D7"F<D \
| "G"G>D B,<G, "Em"B,<D G>D | "Am"E/F/G "D7"F/G/A "G"B<G G :|
|| c \
| "G"B/c/d B<G "Em"g>f e<d | "Am"c>B A<G E<A "D7"F<D \
| "G"B<G B<d "Em"g>f e<d | "Am"(3efg "D7"(3fga "G"g2 G>c |
| "G"B/c/d B<G "Am"E/F/A "D7"F<D | "C"E<C "Am"c>B "D7"A>G F<D \
| "G"B,<G, D>G, "C"E>G, "G"D>B, | "Am"(3EFG "D7"(3FGA "G"G2- G |]
